!!!COM: Beethoven
!!!OTL: 24 Variationen uber Venni Amore von V. Righini
!!!Variation: Variation 2 a
**function	**harm	**kern	**kern
*	*	*clefF4	*clefG2
*	*	*k[f#c#]	*k[f#c#]
*M2/4	*M2/4	*M2/4	*M2/4
*D:	*D:	*D:	*D:
=33	=33	=33	=33
4T	4I	8r	8ff#'L
4T	4I	8D 8F# 8A 8d	(32ff#LK
4T	4I	8D 8F# 8A 8d	16aa'JJ)
4T	4I	8D 8F# 8A 8d	32r
4T	4V7d	8r	8ee'L
4T	4V7d	8G 8A 8c#	(32eeLK
4T	4V7d	8G 8A 8c#	16aa'JJ)
4T	4V7d	8G 8A 8c#	32r
=34	=34	=34	=34
4T	4Ib	8r	8dd'L
4T	4Ib	8F# 8A 8d	(32ddLK
4T	4Ib	8F# 8A 8d	16ddd'JJ)
4T	4Ib	8F# 8A 8d	32r
4T	4V7b/IV	8r	8cc'L
4T	4V7b/IV	8F# 8A 8c 8d	(32ccLK
4T	4V7b/IV	8F# 8A 8c 8d	16ccc'JJ)
4T	4V7b/IV	8F# 8A 8c 8d	32r
=35	=35	=35	=35
4T	4IV	8r	8b'L
4T	4IV	8G 8B 8d	(32bLK
4T	4IV	8G 8B 8d	16bb'JJ)
4T	4IV	8G 8B 8d	32r
4T	4V7d	8r	8cc#'L
4T	4V7d	8G 8A 8c# 8e	(32cc#LK
4T	4V7d	8G 8A 8c# 8e	16ccc#'JJ)
4T	4V7d	8G 8A 8c# 8e	32r
=36	=36	=36	=36
2T	2Ib	8r	8dd'L
2T	2Ib	8F# 8A 8d 8f#	(32ddLK
2T	2Ib	8F# 8A 8d 8f#	16ddd'JJ)
2T	2Ib	8F# 8A 8d 8f#	32r
2T	2Ib	4r	8a'L
2T	2Ib	4r	(32aLK
2T	2Ib	4r	16aa'JJ)
2T	2Ib	4r	32r
=37	=37	=37	=37
2T	2V7/ii	8r	8f#'L
2T	2V7/ii	8D# 8F# 8A 8B	(32f#LK
2T	2V7/ii	8D# 8F# 8A 8B	16ff#'JJ)
2T	2V7/ii	8D# 8F# 8A 8B	32r
2T	2V7/ii	8r	8ff#'L
2T	2V7/ii	8BB 8D# 8F# 8A	(32ff#LK
2T	2V7/ii	8BB 8D# 8F# 8A	16bb'JJ)
2T	2V7/ii	8BB 8D# 8F# 8A	32r
=38	=38	=38	=38
4T	4ii	8r	8e'L
4T	4ii	8E 8G	(32eLK
4T	4ii	8E 8G	16ee'JJ)
4T	4ii	8E 8G	32r
4T	4V7	8r	8ee'L
4T	4V7	8AA 8C# 8E 8G	(32eeLK
4T	4V7	8AA 8C# 8E 8G	16aa'JJ)
4T	4V7	8AA 8C# 8E 8G	32r
=39	=39	=39	=39
4T	4I	8r	8d'L
4T	4I	8D 8F#	(32dLK
4T	4I	8D 8F#	16dd'JJ)
4T	4I	8D 8F#	32r
4T	4V7c/V	8r	8dd'L
4T	4V7c/V	8BB 8D 8E 8G#	(32ddLK
4T	4V7c/V	8BB 8D 8E 8G#	16ddd'JJ)
4T	4V7c/V	8BB 8D 8E 8G#	32r
=40	=40	=40	=40
2D	2V	8r	8a'L
2D	2V	8AA 8C# 8E 8A	(32aLK
2D	2V	8AA 8C# 8E 8A	16aa'JJ)
2D	2V	8AA 8C# 8E 8A	32r
2D	2V	8AAA	4r
2D	2V	8r	4r
=41	=41	=41	=41
4D	4V	8r	8A'L
4D	4V	8AA 8C# 8E	(32ALK
4D	4V	8AA 8C# 8E	16e'JJ)
4D	4V	8AA 8C# 8E	32r
4D	4V7d	8r	8e'L
4D	4V7d	8GG 8BB 8C# 8E	(32eLK
4D	4V7d	8GG 8BB 8C# 8E	16a'JJ)
4D	4V7d	8GG 8BB 8C# 8E	32r
=42	=42	=42	=42
4D	4Ib	8r	8a'L
4D	4Ib	8FF# 8AA 8D	(32aLK
4D	4Ib	8FF# 8AA 8D	16dd'JJ)
4D	4Ib	8FF# 8AA 8D	32r
4D	4I	8r	8dd'L
4D	4I	8DD 8FF# 8AA	(32ddLK
4D	4I	8DD 8FF# 8AA	16ff#'JJ)
4D	4I	8DD 8FF# 8AA	32r
=43	=43	=43	=43
4D	4Vb	8r	8ff#'L
4D	4Vb	8CC# 8EE 8AA	(32ff#LK
4D	4Vb	8CC# 8EE 8AA	16gg'JJ)
4D	4Vb	8CC# 8EE 8AA	32r
4D	4V7d	8r	8gg'L
4D	4V7d	8GG 8AA	(32ggLK
4D	4V7d	8GG 8AA	16ccc#'JJ)
4D	4V7d	8GG 8AA	32r
=44	=44	=44	=44
2D	2Ib	8r	8ccc#'L
2D	2Ib	8FF# 8AA	(32ccc#LK
2D	2Ib	8FF# 8AA	16ddd'JJ)
2D	2Ib	8FF# 8AA	32r
2D	2Ib	4r	8ddd'L
2D	2Ib	4r	(32dddLK
2D	2Ib	4r	16aa'JJ)
2D	2Ib	4r	32r
=45	=45	=45	=45
4D	4Vb	8r	8aa'L
4D	4Vb	8CC# 8GG 8AA	(32aaLK
4D	4Vb	8CC# 8GG 8AA	16ee'JJ)
4D	4Vb	8CC# 8GG 8AA	32r
4D	4V7d	8r	8ee'L
4D	4V7d	8GG 8AA 8C#	(32eeLK
4D	4V7d	8GG 8AA 8C#	16a'JJ)
4D	4V7d	8GG 8AA 8C#	32r
=46	=46	=46	=46
4D	4Ib	8r	8a'L
4D	4Ib	8FF# 8AA 8D	(32aLK
4D	4Ib	8FF# 8AA 8D	16dd'JJ)
4D	4Ib	8FF# 8AA 8D	32r
4D	4I	8r	8dd'L
4D	4I	8D 8F#	(32ddLK
4D	4I	8D 8F#	16d'JJ)
4D	4I	8D 8F#	32r
=47	=47	=47	=47
4P	4ii7d	8r	8d'L
4P	4ii7d	8D 8E	(32dLK
4P	4ii7d	8D 8E	16a'JJ)
4P	4ii7d	8D 8E	32r
4D	4V	8r	8a'L
4D	4V	8AA 8C# 8E	(32aLK
4D	4V	8AA 8C# 8E	16A'JJ)
4D	4V	8AA 8C# 8E	32r
=48	=48	=48	=48
2T	2I	8r	8A'L
2T	2I	8D	(32ALK
2T	2I	8D	16d'JJ)
2T	2I	8D	32r
2T	2I	8DD	4r
2T	2I	8r	4r
*-	*-	*-	*-
